jquery.svg

<svg fill="currentColor" viewBox="0 0 24 24"><path d="M22.88 10.41a5.005 5.005 0 0 1-7.04-.62c-1.78-2.12-1.5-5.29.61-7.04l.51-.38A5.024 5.024 0 0 0 16.8 9c1.63 1.94 4.45 2.32 6.54.97zM21.1 14.5a7.48 7.48 0 0 1-10.56-.92c-2.67-3.17-2.25-7.9.92-10.58l.92-.64a7.494 7.494 0 0 0-.12 9.78c2.42 2.86 6.54 3.49 9.65 1.58zm-1.13 4.88c-4.44 3.73-11.07 3.15-14.8-1.3C1.45 13.64 2.03 7 6.47 3.29l1.11-.79c-3.51 3.8-3.73 9.73-.3 13.82 3.43 4.08 9.31 4.9 13.68 2.11z"/></svg>

<svg  viewBox="0 0 24 24" fill="currentColor"><path  d="M22.88,10.41C20.77,12.18 17.61,11.9 15.84,9.79C14.06,7.67 14.34,4.5 16.45,2.75L16.96,2.37C15.27,4.19 15.16,7.03 16.8,9C18.43,10.94 21.25,11.32 23.34,9.97L22.88,10.41M21.1,14.5C17.93,17.17 13.2,16.76 10.54,13.58C7.87,10.41 8.29,5.68 11.46,3L12.38,2.36C9.96,5.09 9.84,9.26 12.26,12.14C14.68,15 18.8,15.63 21.91,13.72L21.1,14.5M19.97,19.38C15.53,23.11 8.9,22.53 5.17,18.08C1.45,13.64 2.03,7 6.47,3.29L7.58,2.5C4.07,6.3 3.85,12.23 7.28,16.32C10.71,20.4 16.59,21.22 20.96,18.43L19.97,19.38Z"/></svg>
